build/img/icon-list.svg

<svg width="24" height="24" viewBox="0 0 24 24" fill="none" xmlns="http://www.w3.org/2000/svg">
<path fill-rule="evenodd" clip-rule="evenodd" d="M3 4.99997H2V6.99997L3 6.99997L4 6.99997L5 6.99997L5 4.99997H4H3ZM9 4.99997H8V6.99997L9 6.99997L21 6.99997L22 6.99997V4.99997L21 4.99997L9 4.99997ZM8 11L9 11L21 11L22 11V13H21L9 13H8V11ZM3 11L2 11V13L3 13H4L5 13L5 11L4 11L3 11ZM8 17H9L21 17H22V19H21L9 19H8V17ZM3 17H2V19H3H4L5 19L5 17L4 17H3Z" fill="currentColor"/>
</svg>

<svg width="24" height="24" viewBox="0 0 24 24" fill="none" xmlns="http://www.w3.org/2000/svg"><path fill-rule="evenodd" clip-rule="evenodd" d="M3 5H2v2h3V5H3zm6 0H8v2h14V5H9zm-1 6h14v2H8v-2zm-5 0H2v2h3v-2H3zm5 6h14v2H8v-2zm-5 0H2v2h3v-2H3z" fill="currentColor"/></svg>
